X:151
M:C
L:1/8
K:F
d|c<c ~c>f f/g/a g>f|d/e/f c>A B>G G>d|c<c ~c>f f/g/a g>f|d>fc>f A<F F>d|
c<c ~c>f f/g/a g>f|d/e/f c>A B<G G>d|c<c ~cf/g/ a>fg>e|f>cd>f A<FF||
c|A<F F>c A/B/c B>A|B/c/d c>A B<G G>c|A<F F>c A/B/c B>A|

